music_assistant/providers/builtin/icon_monochrome.svg

<?xml version="1.0" encoding="UTF-8" standalone="no"?>
<svg
   viewBox="0 0 20.049999 11.75"
   version="1.1"
   id="svg6"
   sodipodi:docname="icon_monochrome.svg"
   inkscape:version="1.3.2 (091e20e, 2023-11-25, custom)"
   width="20.049999"
   height="11.75"
   xmlns:inkscape="http://www.inkscape.org/namespaces/inkscape"
   xmlns:sodipodi="http://sodipodi.sourceforge.net/DTD/sodipodi-0.dtd"
   xmlns="http://www.w3.org/2000/svg"
   xmlns:svg="http://www.w3.org/2000/svg">
  <defs
     id="defs6" />
  <sodipodi:namedview
     id="namedview6"
     pagecolor="#ffffff"
     bordercolor="#000000"
     borderopacity="0.25"
     inkscape:showpageshadow="2"
     inkscape:pageopacity="0.0"
     inkscape:pagecheckerboard="0"
     inkscape:deskcolor="#d1d1d1"
     inkscape:zoom="35.64"
     inkscape:cx="12.5"
     inkscape:cy="12.5"
     inkscape:window-width="1920"
     inkscape:window-height="1129"
     inkscape:window-x="-8"
     inkscape:window-y="-8"
     inkscape:window-maximized="1"
     inkscape:current-layer="svg6" />
  <g
     id="surface1"
     transform="translate(-2.637486,-7.1268238)">
    <path
       style="fill:#000000;fill-opacity:0;fill-rule:nonzero;stroke:none"
       d="m 1.5,0 h 22 C 24.328125,0 25,0.671875 25,1.5 v 22 C 25,24.328125 24.328125,25 23.5,25 H 1.5 C 0.671875,25 0,24.328125 0,23.5 V 1.5 C 0,0.671875 0.671875,0 1.5,0 Z m 0,0"
       id="path1" />
    <path
       style="fill:#ffffff;fill-opacity:1;fill-rule:nonzero;stroke:none"
       d="M 10.386719,18.875 14.8125,7.125 h 1.300781 L 11.6875,18.875 Z m 0,0"
       id="path2" />
    <path
       style="fill:#ffffff;fill-opacity:1;fill-rule:nonzero;stroke:none"
       d="M 21.371094,18.875 16.945312,7.125 h 1.300782 l 4.425781,11.75 z m 0,0"
       id="path3" />
    <path
       style="fill:#ffffff;fill-opacity:1;fill-rule:nonzero;stroke:none"
       d="M 2.636719,18.875 V 7.125 H 3.875 v 11.75 z m 0,0"
       id="path4" />
    <path
       style="fill:#ffffff;fill-opacity:1;fill-rule:nonzero;stroke:none"
       d="M 5.445312,18.875 V 7.125 h 1.238282 v 11.75 z m 0,0"
       id="path5" />
    <path
       style="fill:#ffffff;fill-opacity:1;fill-rule:nonzero;stroke:none"
       d="M 8.253906,18.875 V 7.125 h 1.238282 v 11.75 z m 0,0"
       id="path6" />
  </g>
</svg>

<?xml version="1.0" encoding="UTF-8" standalone="no"?>
<svg
   viewBox="0 0 25 25"
   version="1.1"
   id="svg6"
   sodipodi:docname="icon.svg"
   inkscape:version="1.3.2 (091e20e, 2023-11-25, custom)"
   xmlns:inkscape="http://www.inkscape.org/namespaces/inkscape"
   xmlns:sodipodi="http://sodipodi.sourceforge.net/DTD/sodipodi-0.dtd"
   xmlns="http://www.w3.org/2000/svg"
   xmlns:svg="http://www.w3.org/2000/svg">
  <defs
     id="defs6" />
  <sodipodi:namedview
     id="namedview6"
     pagecolor="#ffffff"
     bordercolor="#000000"
     borderopacity="0.25"
     inkscape:showpageshadow="2"
     inkscape:pageopacity="0.0"
     inkscape:pagecheckerboard="0"
     inkscape:deskcolor="#d1d1d1"
     inkscape:zoom="35.64"
     inkscape:cx="12.485971"
     inkscape:cy="12.5"
     inkscape:window-width="1920"
     inkscape:window-height="1129"
     inkscape:window-x="-8"
     inkscape:window-y="-8"
     inkscape:window-maximized="1"
     inkscape:current-layer="svg6" />
  <g
     id="surface1">
    <path
       style="stroke:none;fill-rule:nonzero;fill:#000000;fill-opacity:0"
       d="M 1.5 0 L 23.5 0 C 24.328125 0 25 0.671875 25 1.5 L 25 23.5 C 25 24.328125 24.328125 25 23.5 25 L 1.5 25 C 0.671875 25 0 24.328125 0 23.5 L 0 1.5 C 0 0.671875 0.671875 0 1.5 0 Z M 1.5 0 "
       id="path1" />
    <path
       style=" stroke:none;fill-rule:nonzero;fill:rgb(100%,100%,100%);fill-opacity:1;"
       d="M 10.386719 18.875 L 14.8125 7.125 L 16.113281 7.125 L 11.6875 18.875 Z M 10.386719 18.875 "
       id="path2" />
    <path
       style=" stroke:none;fill-rule:nonzero;fill:rgb(100%,100%,100%);fill-opacity:1;"
       d="M 21.371094 18.875 L 16.945312 7.125 L 18.246094 7.125 L 22.671875 18.875 Z M 21.371094 18.875 "
       id="path3" />
    <path
       style=" stroke:none;fill-rule:nonzero;fill:rgb(100%,100%,100%);fill-opacity:1;"
       d="M 2.636719 18.875 L 2.636719 7.125 L 3.875 7.125 L 3.875 18.875 Z M 2.636719 18.875 "
       id="path4" />
    <path
       style=" stroke:none;fill-rule:nonzero;fill:rgb(100%,100%,100%);fill-opacity:1;"
       d="M 5.445312 18.875 L 5.445312 7.125 L 6.683594 7.125 L 6.683594 18.875 Z M 5.445312 18.875 "
       id="path5" />
    <path
       style=" stroke:none;fill-rule:nonzero;fill:rgb(100%,100%,100%);fill-opacity:1;"
       d="M 8.253906 18.875 L 8.253906 7.125 L 9.492188 7.125 L 9.492188 18.875 Z M 8.253906 18.875 "
       id="path6" />
  </g>
</svg>
